dist/images/icons/tiktok_color.svg

<svg width="24" height="24" viewBox="0 0 24 24" fill="none" xmlns="http://www.w3.org/2000/svg">
<path d="M17.1772 8.66347C18.7205 9.77064 20.6112 10.4221 22.6532 10.4221V6.47861C22.2668 6.47869 21.8813 6.43825 21.5032 6.35786V9.46193C19.4614 9.46193 17.5709 8.81049 16.0272 7.7034V15.7509C16.0272 19.7766 12.7753 23.0399 8.76406 23.0399C7.26739 23.0399 5.87629 22.5858 4.7207 21.807C6.03961 23.1604 7.87894 24 9.91383 24C13.9253 24 17.1774 20.7367 17.1774 16.7108V8.66347H17.1772ZM18.5959 4.68499C17.8071 3.82023 17.2892 2.70267 17.1772 1.46717V0.959961H16.0874C16.3617 2.53028 17.2974 3.87187 18.5959 4.68499ZM7.25779 18.7178C6.81712 18.1379 6.57898 17.4286 6.58004 16.6992C6.58004 14.858 8.06745 13.3651 9.90251 13.3651C10.2445 13.365 10.5844 13.4176 10.9104 13.5214V9.48977C10.5295 9.43739 10.1451 9.41515 9.76084 9.4233V12.5613C9.43468 12.4575 9.09457 12.4048 8.7525 12.4051C6.91744 12.4051 5.43012 13.8979 5.43012 15.7393C5.43012 17.0414 6.17357 18.1687 7.25779 18.7178Z" fill="#FF004F"/>
<path d="M16.0269 7.70332C17.5707 8.81041 19.4611 9.46185 21.503 9.46185V6.35778C20.3632 6.11414 19.3543 5.5164 18.5956 4.68499C17.2971 3.87179 16.3615 2.5302 16.0872 0.959961H13.2246V16.7106C13.2181 18.5468 11.7332 20.0336 9.90211 20.0336C8.82306 20.0336 7.86443 19.5174 7.25731 18.7178C6.17318 18.1687 5.42972 17.0413 5.42972 15.7394C5.42972 13.8981 6.91704 12.4052 8.7521 12.4052C9.10369 12.4052 9.44256 12.4602 9.76044 12.5614V9.42338C5.8197 9.50509 2.65039 12.7365 2.65039 16.7107C2.65039 18.6946 3.43962 20.4931 4.72055 21.8071C5.87614 22.5858 7.26724 23.04 8.76391 23.04C12.7752 23.04 16.027 19.7765 16.027 15.7509V7.70332H16.0269Z" fill="black"/>
<path d="M21.5025 6.3578V5.51848C20.4748 5.52005 19.4672 5.23119 18.5952 4.68493C19.3671 5.53306 20.3835 6.11787 21.5025 6.3578ZM16.0867 0.959983C16.0605 0.809911 16.0404 0.658851 16.0265 0.507214V0H12.074V15.7508C12.0677 17.5868 10.5829 19.0736 8.75164 19.0736C8.214 19.0736 7.70638 18.9455 7.25685 18.7179C7.86397 19.5174 8.82259 20.0336 9.90164 20.0336C11.7326 20.0336 13.2177 18.5469 13.2241 16.7107V0.959983H16.0867ZM9.76014 9.42341V8.52989C9.42988 8.48459 9.09691 8.46186 8.76353 8.46202C4.75192 8.46194 1.5 11.7254 1.5 15.7508C1.5 18.2745 2.77806 20.4987 4.72017 21.807C3.43924 20.493 2.65001 18.6944 2.65001 16.7106C2.65001 12.7365 5.81924 9.50511 9.76014 9.42341Z" fill="#00F2EA"/>
</svg>

<svg width="24" height="24" fill="none" xmlns="http://www.w3.org/2000/svg"><path d="M17.177 8.663a9.362 9.362 0 005.476 1.76V6.478c-.386 0-.772-.04-1.15-.121v3.104a9.364 9.364 0 01-5.476-1.759v8.048c0 4.026-3.252 7.289-7.263 7.289a7.21 7.21 0 01-4.043-1.233A7.229 7.229 0 009.914 24c4.011 0 7.263-3.263 7.263-7.29V8.664zm1.419-3.978a5.505 5.505 0 01-1.419-3.218V.96h-1.09a5.521 5.521 0 002.509 3.725zM7.258 18.718a3.328 3.328 0 01-.678-2.019 3.328 3.328 0 014.33-3.178V9.49a7.302 7.302 0 00-1.15-.067v3.138a3.328 3.328 0 00-4.33 3.178c0 1.302.744 2.43 1.828 2.979z" fill="#FF004F"/><path d="M16.027 7.703a9.364 9.364 0 005.476 1.759V6.358a5.492 5.492 0 01-2.907-1.673A5.522 5.522 0 0116.087.96h-2.862v15.75a3.329 3.329 0 01-3.323 3.324 3.314 3.314 0 01-2.645-1.316 3.335 3.335 0 01-1.827-2.979 3.328 3.328 0 014.33-3.178V9.423c-3.94.082-7.11 3.313-7.11 7.288a7.28 7.28 0 002.07 5.096 7.21 7.21 0 004.044 1.233c4.011 0 7.263-3.264 7.263-7.29V7.704z" fill="#000"/><path d="M21.503 6.358v-.84a5.46 5.46 0 01-2.908-.833 5.487 5.487 0 002.908 1.673zM16.087.96a5.611 5.611 0 01-.06-.453V0h-3.953v15.75a3.328 3.328 0 01-3.322 3.324 3.299 3.299 0 01-1.495-.356 3.314 3.314 0 002.645 1.316 3.329 3.329 0 003.322-3.323V.96h2.863zM9.76 9.423V8.53a7.308 7.308 0 00-.996-.068c-4.012 0-7.264 3.263-7.264 7.289a7.289 7.289 0 003.22 6.056 7.278 7.278 0 01-2.07-5.096c0-3.974 3.17-7.206 7.11-7.288z" fill="#00F2EA"/></svg>
